X: 4015
T: FAIR HAIRED LASSIE
R: Strathspey.
%R: strathspey
B: James Kerr "Merry Melodies" v.4 p.04 #15
Z: 2016 John Chambers <jc:trillian.mit.edu>
M: C
L: 1/8
K: A
|:\
vE2-EC (E<A)A2 | E>FE>C (E<A)A2 |\
f>de>c d>Bc>A |[1 B>cB>A (3GBA (3GAF :|[2 (3GAB (3EFG A2(A<c) |]
|:\
e2-ed (c<e)a2 | e>fe>d (c<e)a2 |\
f>=gf>e d>ed>c |[1 B>cB>A (3GBA GFE :|[2 (3Bcd (3EFG A2(A<c) |]

%%sep 1 1 500
%%sep 1 1 500

